X:127
T:Landlord fill the bowl
%%VWML:SBG-1-2-852-0
F:http://www.vwml.org/record/SBG/1/2/852
Z:Original Sibelius transcriptions by M. & S. Graebe
M:2/4
I:linebreak $
K:Bb
V:1 treble nm="P1"
V:1
 F | B B B c | A F F3/2 F/ | B B c c | d2 B | F :| z | d d d f |$ f e e2 | c c c e | e d d2 | %11
 B B B d | d c e3/2 c/ | A F G A | B2 B | %15



